X:1
T:St. Ignatius (Beaumont), 10.10.11.11
T:John Beaumont, 1801
T:St. Ignatius (Beaumont), 10.10.11.11
T:Public Domain
C:John Beaumont, 1801
Z:Public Domain
%%score ( 1 2 ) ( 3 4 )
L:1/8
M:3/4
K:Ab
V:1 treble 
V:2 treble 
V:3 bass 
V:4 bass 
V:1
 [EA]2 | A2 (cB) (AG) | [EA]4 [EB]2 | [Ec]2 (ed) (cB) | [Ec]4 (e>d) | [Ec]2 [EB]2 [=DA]2 | %6
 A2 G2 [EA]2 | ([FB]>[Ec]) [Dd]2 [Ec]2 | (c2 B2) [EB]2 | [FB]2 [Ee]2 (FG) | (c>B) [EA]2 [EG]2 | %11
 [EA]2 [DB]2 (CD) | [EB]4 E2 | (F>G) [EA]2 [DG]2 | [CA]2 [Fd]2 [Ec]2 | [FB]2 [EA]2 [EG]2 | [EA]4 |] %17
V:2
 x2 | A2 F2 E2 | x6 | x2 A2 E2 | x4 E2 | x6 | E4 x2 | x6 | E4 x2 | x4 d2 | A2 x4 | x4 c2 | x4 E2 | %13
 D2 x4 | x6 | x6 | x4 |] %17
V:3
 [A,,C]2 | [C,E]2 (ED) CB, | [A,,C]4 [E,G,]2 | A,2 (CB,) (A,G,) | A,4 [G,B,]2 | %5
 A,2 [G,B,]2 [F,B,]2 | [E,B,]4 [C,A,]2 | (D,>C,) [B,,G,]2 [A,,A,]2 | (A,2 G,2) [E,G,]2 | %9
 (F,G,) [C,A,]2 [B,,D]2 | [A,,E]2 [C,C]2 [D,B,]2 | [C,A,]2 [B,,G,]2 [A,,A,]2 | [E,G,]4 [C,A,]2 | %13
 [D,A,]2 [C,A,]2 [B,,B,]2 | [F,A,]2 (F,G,) [C,A,]2 | [D,D]2 [E,C]2 [E,B,]2 | [A,,C]4 |] %17
V:4
 x2 | x2 D,2 E,2 | x6 | A,2 C,2 E,2 | A,4 x2 | A,2 x4 | x6 | F,2 x4 | E,4 x2 | D,2 x4 | x6 | x6 | %12
 x6 | x6 | x2 B,,2 x2 | x6 | x4 |] %17

